packages/core/src/svgs/tokens/branded/XDEFI.svg

<svg width="24" height="24" viewBox="0 0 24 24" fill="none" xmlns="http://www.w3.org/2000/svg">
<path d="M5.9735 5.73334C4.50684 7.13335 3.68683 8.89332 3.68683 10.3333C3.68683 11.7668 4.32018 12.7334 5.28685 13.36C6.28684 14.0133 7.65351 14.3334 9.08685 14.3334C11.3402 14.3334 13.3869 13.2934 14.1003 12.7934L15.1669 13.6667C14.3001 14.2801 11.7002 15.6667 9.08685 15.6667C7.48685 15.6667 5.82017 15.32 4.54018 14.4667C3.84699 14.0271 3.2798 13.4152 2.89416 12.6906C2.50851 11.9662 2.31763 11.1539 2.34017 10.3333C2.34017 8.44002 3.37351 6.36002 5.03351 4.77334C6.70018 3.17333 9.06025 2 11.7868 2C14.5203 2 16.9469 3.16667 18.7268 4.75334C20.5001 6.33334 21.7003 8.38668 21.9135 10.26C22.0868 11.82 22.1002 14.2133 20.9603 16.5C19.8135 18.82 17.0535 21.3334 12.6668 22V20.6667C16.7201 19.6667 18.7935 17.8467 19.7469 15.9134C20.7269 13.9534 20.7335 11.8467 20.5736 10.4067C20.4068 8.93999 19.4203 7.16668 17.8202 5.74C16.1713 4.22664 14.0247 3.37039 11.7868 3.33333C9.45349 3.33333 7.42685 4.33334 5.9735 5.73334Z" fill="url(#paint0_linear_364_4869)"/>
<path d="M17.6664 11.3334C18.2188 11.3334 18.6665 10.8857 18.6665 10.3333C18.6665 9.78106 18.2188 9.33337 17.6664 9.33337C17.1142 9.33337 16.6665 9.78106 16.6665 10.3333C16.6665 10.8857 17.1142 11.3334 17.6664 11.3334Z" fill="url(#paint1_linear_364_4869)"/>
<path d="M17.1933 15C10.7334 19.7133 4.24666 18.1467 2 16.6667L2.67334 15.6667C4.48 16.8534 10.1466 18.4868 16.1133 14.1334L17.1933 15ZM19.0001 16C14.4867 20.46 8.31335 20.8134 6.00001 20.3334V19.0001C7.96668 19.4067 13.8733 19.4067 18 15.3333L19.0001 16Z" fill="url(#paint2_linear_364_4869)"/>
<defs>
<linearGradient id="paint0_linear_364_4869" x1="18.2499" y1="4.14286" x2="5.92833" y2="19.4997" gradientUnits="userSpaceOnUse">
<stop stop-color="#4375F2"/>
<stop offset="1" stop-color="#2141E1"/>
</linearGradient>
<linearGradient id="paint1_linear_364_4869" x1="18.2494" y1="4.14285" x2="5.92791" y2="19.4997" gradientUnits="userSpaceOnUse">
<stop stop-color="#4375F2"/>
<stop offset="1" stop-color="#2141E1"/>
</linearGradient>
<linearGradient id="paint2_linear_364_4869" x1="18.2497" y1="4.14284" x2="5.92816" y2="19.4997" gradientUnits="userSpaceOnUse">
<stop stop-color="#4375F2"/>
<stop offset="1" stop-color="#2141E1"/>
</linearGradient>
</defs>
</svg>

<svg xmlns="http://www.w3.org/2000/svg" width="24" height="24" fill="none" viewBox="0 0 24 24">
    <path fill="url(#XDEFI__a)" d="M5.974 5.733c-1.467 1.4-2.287 3.16-2.287 4.6 0 1.434.633 2.4 1.6 3.027 1 .653 2.367.973 3.8.973 2.253 0 4.3-1.04 5.013-1.54l1.067.874c-.867.613-3.467 2-6.08 2-1.6 0-3.267-.347-4.547-1.2a4.74 4.74 0 0 1-2.2-4.134c0-1.893 1.034-3.973 2.694-5.56C6.7 3.173 9.06 2 11.787 2c2.733 0 5.16 1.167 6.94 2.753 1.773 1.58 2.973 3.634 3.186 5.507.174 1.56.187 3.953-.953 6.24-1.146 2.32-3.907 4.833-8.293 5.5v-1.333c4.053-1 6.127-2.82 7.08-4.754.98-1.96.986-4.066.827-5.506-.167-1.467-1.154-3.24-2.754-4.667a9.15 9.15 0 0 0-6.033-2.407c-2.334 0-4.36 1-5.814 2.4"/>
    <path fill="url(#XDEFI__b)" d="M17.666 11.333a1 1 0 1 0 0-2 1 1 0 0 0 0 2"/>
    <path fill="url(#XDEFI__c)" d="M17.193 15C10.733 19.713 4.247 18.147 2 16.667l.673-1c1.807 1.186 7.474 2.82 13.44-1.534zM19 16c-4.513 4.46-10.687 4.813-13 4.333V19c1.967.407 7.873.407 12-3.667z"/>
    <defs>
        <linearGradient id="XDEFI__a" x1="18.25" x2="5.928" y1="4.143" y2="19.5" gradientUnits="userSpaceOnUse">
            <stop stop-color="#4375F2"/>
            <stop offset="1" stop-color="#2141E1"/>
        </linearGradient>
        <linearGradient id="XDEFI__b" x1="18.249" x2="5.928" y1="4.143" y2="19.5" gradientUnits="userSpaceOnUse">
            <stop stop-color="#4375F2"/>
            <stop offset="1" stop-color="#2141E1"/>
        </linearGradient>
        <linearGradient id="XDEFI__c" x1="18.25" x2="5.928" y1="4.143" y2="19.5" gradientUnits="userSpaceOnUse">
            <stop stop-color="#4375F2"/>
            <stop offset="1" stop-color="#2141E1"/>
        </linearGradient>
    </defs>
</svg>
